X: 10047
T: JO ELLEN'S HORNPIPE
C: Bob McQuillen 6 Aug 93
B: Bob's Note Book 10 #47
%R: hornpipe, reel
Z: 2020 John Chambers <jc:trillian.mit.edu>
M: C	% the booklet has no time signature
L: 1/8
K: G
BA \
| G2D2 DEGE | DEGA B2cB | A2AB cBAG | AGFE DcBA |\
| G2D2 DEGE | DEGA BGBd | cedc BGAG | D2G2 G2  :|
|: Bc \
| d2gf g2dc | Bcde dcBc | d2ge dBed | c2A2 A2AB |\
| c2ec B2dB | cBAG EGFE | DGBd cdef | g2G2 G2  :|
%%begintext align
%% Jo Ellen Borson [sp?] and I go back a
%% long way. She told me recently she was at Fox Hollow and heard
%% the first playing of The Dancing Bear! It sure was a pleasure
%% to see you at Augusta this summer, Jo Ellen - I hope that
%% happens again soon!
%%endtext

%%sep 1 1 500

%%sep 1 1 500

